X: 33970
T: Redican's Mother
R: slip jig
M: 9/8
K: Dmajor
|:FAA FAd AFD|FAA FAd B2A|FAA FAd AFD|E3 DFA B2A:|
|:f3 faf edB|Aff fef g2e|f3 faf edB|AFE DFA B2A:|

